Newaita-dark/apps/24/com.github.artemanufrij.showmypictures.svg

<svg height="24" viewBox="0 0 24 24" width="24" xmlns="http://www.w3.org/2000/svg" xmlns:xlink="http://www.w3.org/1999/xlink"><linearGradient id="a" gradientUnits="userSpaceOnUse" x1="11.90739" x2="11.90739" y1="21.02545225" y2="22.01773525002"><stop offset="0" stop-opacity=".27451"/><stop offset="1" stop-opacity="0"/></linearGradient><linearGradient id="b"><stop offset="0" stop-opacity=".313726"/><stop offset=".222222" stop-opacity=".27451"/><stop offset="1" stop-opacity="0"/></linearGradient><radialGradient id="c" cx="450.908936" cy="189.579361" gradientTransform="matrix(.00000013 -.0585994 -.105479 -.00000008 39.097986 47.696499)" gradientUnits="userSpaceOnUse" r="21.166656" xlink:href="#b"/><radialGradient id="d" cx="450.908936" cy="189.579361" gradientTransform="matrix(-.00000013 .0585994 .105479 .00000008 -15.28321 -5.645609)" gradientUnits="userSpaceOnUse" r="21.166656" xlink:href="#b"/><radialGradient id="e" cx="450.908936" cy="189.579361" gradientTransform="matrix(-.00000013 -.0585994 .105479 -.00000008 -15.28321 47.696499)" gradientUnits="userSpaceOnUse" r="21.166656" xlink:href="#b"/><radialGradient id="f" cx="450.908936" cy="189.579361" gradientTransform="matrix(.00000013 .0585994 -.105479 .00000008 39.097985 -5.64561)" gradientUnits="userSpaceOnUse" r="21.166656" xlink:href="#b"/><linearGradient id="g" gradientUnits="userSpaceOnUse" x1="7.93826174998" x2="7.93826174998" y1="21.02545025" y2="2.17207850005"><stop offset="0" stop-color="#bdbdbd"/><stop offset="1" stop-color="#e0e0e0"/></linearGradient><linearGradient id="h" gradientUnits="userSpaceOnUse" x1="11.90739229681" x2="11.907393" y1="16.560177875" y2="3.16436075"><stop offset="0" stop-color="#e57373"/><stop offset="1" stop-color="#64b5f6"/></linearGradient><linearGradient id="i" gradientUnits="userSpaceOnUse" x1="16.620716375" x2="16.620716375" y1="9.614203" y2="5.14893546662"><stop offset="0" stop-color="#f44336"/><stop offset="1" stop-color="#ef5350"/></linearGradient><linearGradient id="j" gradientUnits="userSpaceOnUse" x1="11.90736" x2="11.90736" y1="16.43027714717" y2="3.53063657661"><stop offset="0" stop-color="#424242"/><stop offset="1" stop-color="#616161"/></linearGradient><linearGradient id="k" gradientUnits="userSpaceOnUse" x1="11.90736" x2="11.90736" y1="16.43027814717" y2="3.53063757661"><stop offset="0" stop-color="#f48fb1"/><stop offset="1" stop-color="#fce4ec"/></linearGradient><path d="m4.464844 20.953125h14.882812v1.101563h-14.882812zm0 0" fill="url(#a)"/><path d="m19.347656 21.027344h1.988282v-.996094h-1.988282zm0 0" fill="url(#c)"/><path d="m4.464844 21.027344h-1.984375v.992187h1.984375zm0 0" fill="url(#d)"/><path d="m4.464844 21.027344h-1.984375v-.996094h1.984375zm0 0" fill="url(#e)"/><path d="m19.347656 21.027344h1.988282v.992187h-1.988282zm0 0" fill="url(#f)"/><path d="m3.472656 2.171875h16.867188c.550781 0 .996094.445313.996094.992187v16.867188c0 .550781-.445313.996094-.996094.996094h-16.867188c-.546875 0-.992187-.445313-.992187-.996094v-16.867188c0-.546874.445312-.992187.992187-.992187zm0 0" fill="url(#g)"/><path d="m3.472656 2.171875c-.550781 0-.992187.441406-.992187.992187v.125c0-.550781.441406-.992187.992187-.992187h16.867188c.550781 0 .996094.441406.996094.992187v-.125c0-.550781-.445313-.992187-.996094-.992187zm0 0" fill="#fff"/><path d="m3.472656 20.9375c-.550781 0-.992187-.441406-.992187-.992188v-.125c0 .550782.441406.996094.992187.996094h16.867188c.550781 0 .996094-.445312.996094-.996094v.125c0 .550782-.445313.992188-.996094.992188zm0 0" fill-opacity=".196078"/><path d="m74.076259-168.671091h359.798975c11.748878 0 21.247971 9.499093 21.247971 21.164646v359.798974c0 11.748878-9.499093 21.247971-21.247971 21.247971h-359.798975c-11.665552 0-21.164645-9.499093-21.164645-21.247971v-359.798974c0-11.665553 9.499093-21.164646 21.164645-21.164646zm0 0" fill="none" stroke="#212121" stroke-linecap="round" stroke-width="3" transform="matrix(.0468795 0 0 .0468795 0 10.079087)"/><path d="m3.96875 3.164062h15.875c.277344 0 .496094.222657.496094.496094v11.90625c0 .277344-.21875.496094-.496094.496094h-15.875c-.273438 0-.496094-.21875-.496094-.496094v-11.90625c0-.273437.222656-.496094.496094-.496094zm0 0" fill="url(#h)"/><path d="m16.371094 5.148438h.496094c1.097656 0 1.984374 1 1.984374 2.234374 0 1.230469-.886718 2.230469-1.984374 2.230469h-.496094c-1.09375 0-1.984375-1-1.984375-2.230469 0-1.234374.890625-2.234374 1.984375-2.234374zm0 0" fill="url(#i)"/><path d="m7.929688 7.007812c-.125 0-.25.054688-.339844.144532l-4.117188 4.117187v4.296875c0 .277344.222656.496094.496094.496094h15.875c.277344 0 .496094-.21875.496094-.496094v-4.148437l-3.144532-2.796875c-.203124-.183594-.515624-.164063-.695312.042968l-3.128906 3.574219-5.085938-5.085937c-.09375-.09375-.222656-.148438-.355468-.144532zm0 0" fill="url(#j)"/><path d="m7.929688 7.007812c-.125 0-.25.054688-.339844.144532l-1.933594 1.933594.546875.644531c.246094.25.96875.261719 1.734375-.246094.492188-.488281 1.082031-.445313 1.488281 0 .578125.535156 1.101563.496094 1.6875.496094l-2.828125-2.828125c-.09375-.09375-.222656-.148438-.355468-.144532zm8.933593 1.488282c-.136719 0-.269531.058594-.363281.167968l-1.152344 1.316407h.03125c.085938.1875.125.867187.496094.496093.636719-.636718.746094-.371093.992188-.125.375.375.621093.746094.992187.621094.621094-.246094.730469-.859375.453125-1.359375l-1.117188-.992187c-.09375-.085938-.214843-.125-.332031-.125zm0 0" fill="url(#k)"/><g fill="none" stroke-linecap="round" stroke-width="3"><path d="m84.658582-147.506445h338.634329c5.916102 0 10.582323 4.749546 10.582323 10.582322v253.975747c0 5.916102-4.666221 10.582323-10.582323 10.582323h-338.634329c-5.832776 0-10.582323-4.666221-10.582323-10.582323v-253.975747c0-5.832776 4.749547-10.582322 10.582323-10.582322zm0 0" stroke="#212121" transform="matrix(.0468795 0 0 .0468795 0 10.079087)"/><path d="m221.554093 136.336901c-2.16646-14.248639 15.49852-20.748019 7.415959.749928-7.082657 18.998186-16.58175 19.748115-16.415099 14.831917.833253-6.916006 9.415767-3.333015 15.831821-2.583086 8.499188 1.08323 16.748401-11.082275 16.248448-19.164837" stroke="#1a237e" stroke-linejoin="round" transform="matrix(.0468795 0 0 .0468795 3.969129 12.311722)"/><path d="m239.219073 128.337665c4.33292-14.331965 28.580604-20.997995 20.498043.499952-7.082657 18.998186-18.664885 18.74821-19.914765 14.165314-1.249881-4.582896 4.916197-12.915433 4.832871-12.832108" stroke="#1a237e" stroke-linejoin="round" transform="matrix(.0468795 0 0 .0468795 3.969129 12.311722)"/><path d="m265.383241 121.338333c17.66498-4.749546 14.998568-11.498902 14.41529-13.748687-9.749069 19.081511-10.582323 35.663261-9.91572 30.663739" stroke="#1a237e" stroke-linejoin="round" transform="matrix(.0468795 0 0 .0468795 3.969129 12.311722)"/><path d="m285.298006 112.672494c.166651-11.582227 19.164837-8.665839 9.165791 1.416532-8.249212 8.249212-19.331487 12.832108-15.248543 19.164836 5.166173 6.916006 18.91486-3.41634 12.24883-9.832394-6.499379-5.666126-7.832586-7.832586-8.499189-10.082371" stroke="#1a237e" stroke-linejoin="round" transform="matrix(.0468795 0 0 .0468795 3.969129 12.311722)"/><path d="m214.304786 166.000735c52.911613-26.414144 113.739138-26.414144 100.573729-21.164646" stroke="#1a237e" stroke-linejoin="round" transform="matrix(.0468795 0 0 .0468795 3.969129 12.311722)"/></g></svg>

<?xml version="1.0" encoding="UTF-8"?>
<svg xmlns="http://www.w3.org/2000/svg" xmlns:xlink="http://www.w3.org/1999/xlink" width="24px" height="24px" viewBox="0 0 24 24" version="1.1">
<defs>
<linearGradient id="linear0" gradientUnits="userSpaceOnUse" x1="254" y1="233.5" x2="254" y2="254.666672" gradientTransform="matrix(0.0468795,0,0,0.0468795,-0.0000028613,10.079089)">
<stop offset="0" style="stop-color:rgb(0%,0%,0%);stop-opacity:0.27451;"/>
<stop offset="1" style="stop-color:rgb(0%,0%,0%);stop-opacity:0;"/>
</linearGradient>
<radialGradient id="radial0" gradientUnits="userSpaceOnUse" cx="450.908936" cy="189.579361" fx="450.908936" fy="189.579361" r="21.166656" gradientTransform="matrix(0.000000130628,-0.0585994,-0.105479,-0.0000000761539,39.097986,47.696499)">
<stop offset="0" style="stop-color:rgb(0%,0%,0%);stop-opacity:0.313726;"/>
<stop offset="0.222222" style="stop-color:rgb(0%,0%,0%);stop-opacity:0.27451;"/>
<stop offset="1" style="stop-color:rgb(0%,0%,0%);stop-opacity:0;"/>
</radialGradient>
<radialGradient id="radial1" gradientUnits="userSpaceOnUse" cx="450.908936" cy="189.579361" fx="450.908936" fy="189.579361" r="21.166656" gradientTransform="matrix(-0.000000130628,0.0585994,0.105479,0.0000000761539,-15.28321,-5.645609)">
<stop offset="0" style="stop-color:rgb(0%,0%,0%);stop-opacity:0.313726;"/>
<stop offset="0.222222" style="stop-color:rgb(0%,0%,0%);stop-opacity:0.27451;"/>
<stop offset="1" style="stop-color:rgb(0%,0%,0%);stop-opacity:0;"/>
</radialGradient>
<radialGradient id="radial2" gradientUnits="userSpaceOnUse" cx="450.908936" cy="189.579361" fx="450.908936" fy="189.579361" r="21.166656" gradientTransform="matrix(-0.000000130628,-0.0585994,0.105479,-0.0000000761539,-15.28321,47.696499)">
<stop offset="0" style="stop-color:rgb(0%,0%,0%);stop-opacity:0.313726;"/>
<stop offset="0.222222" style="stop-color:rgb(0%,0%,0%);stop-opacity:0.27451;"/>
<stop offset="1" style="stop-color:rgb(0%,0%,0%);stop-opacity:0;"/>
</radialGradient>
<radialGradient id="radial3" gradientUnits="userSpaceOnUse" cx="450.908936" cy="189.579361" fx="450.908936" fy="189.579361" r="21.166656" gradientTransform="matrix(0.000000130628,0.0585994,-0.105479,0.0000000761539,39.097985,-5.64561)">
<stop offset="0" style="stop-color:rgb(0%,0%,0%);stop-opacity:0.313726;"/>
<stop offset="0.222222" style="stop-color:rgb(0%,0%,0%);stop-opacity:0.27451;"/>
<stop offset="1" style="stop-color:rgb(0%,0%,0%);stop-opacity:0;"/>
</radialGradient>
<linearGradient id="linear1" gradientUnits="userSpaceOnUse" x1="169.333328" y1="233.5" x2="169.333328" y2="-168.666656" gradientTransform="matrix(0.0468795,0,0,0.0468795,0,10.079087)">
<stop offset="0" style="stop-color:rgb(74.117649%,74.117649%,74.117649%);stop-opacity:1;"/>
<stop offset="1" style="stop-color:rgb(87.843138%,87.843138%,87.843138%);stop-opacity:1;"/>
</linearGradient>
<linearGradient id="linear2" gradientUnits="userSpaceOnUse" x1="253.999985" y1="138.25" x2="254" y2="-147.5" gradientTransform="matrix(0.0468795,0,0,0.0468795,0,10.079087)">
<stop offset="0" style="stop-color:rgb(89.803922%,45.09804%,45.09804%);stop-opacity:1;"/>
<stop offset="1" style="stop-color:rgb(39.215687%,70.980394%,96.470588%);stop-opacity:1;"/>
</linearGradient>
<linearGradient id="linear3" gradientUnits="userSpaceOnUse" x1="301.625" y1="-84" x2="301.625" y2="-136.916672" gradientTransform="matrix(0.084383,0,0,0.084383,-8.831306,16.702375)">
<stop offset="0" style="stop-color:rgb(95.686275%,26.274511%,21.176471%);stop-opacity:1;"/>
<stop offset="1" style="stop-color:rgb(93.725491%,32.549021%,31.37255%);stop-opacity:1;"/>
</linearGradient>
<linearGradient id="linear4" gradientUnits="userSpaceOnUse" x1="960" y1="1295.118164" x2="960" y2="255.118118" gradientTransform="matrix(0.0124035,0,0,0.0124035,0.000000201582,0.366279)">
<stop offset="0" style="stop-color:rgb(25.882354%,25.882354%,25.882354%);stop-opacity:1;"/>
<stop offset="1" style="stop-color:rgb(38.039216%,38.039216%,38.039216%);stop-opacity:1;"/>
</linearGradient>
<linearGradient id="linear5" gradientUnits="userSpaceOnUse" x1="960" y1="1295.118164" x2="960" y2="255.118118" gradientTransform="matrix(0.0124035,0,0,0.0124035,0.000000201582,0.36628)">
<stop offset="0" style="stop-color:rgb(95.686275%,56.078434%,69.411767%);stop-opacity:1;"/>
<stop offset="1" style="stop-color:rgb(98.823529%,89.411765%,92.54902%);stop-opacity:1;"/>
</linearGradient>
</defs>
<g id="surface1">
<path style=" stroke:none;fill-rule:nonzero;fill:url(#linear0);" d="M 4.464844 20.953125 L 19.347656 20.953125 L 19.347656 22.054688 L 4.464844 22.054688 Z M 4.464844 20.953125 "/>
<path style=" stroke:none;fill-rule:nonzero;fill:url(#radial0);" d="M 19.347656 21.027344 L 21.335938 21.027344 L 21.335938 20.03125 L 19.347656 20.03125 Z M 19.347656 21.027344 "/>
<path style=" stroke:none;fill-rule:nonzero;fill:url(#radial1);" d="M 4.464844 21.027344 L 2.480469 21.027344 L 2.480469 22.019531 L 4.464844 22.019531 Z M 4.464844 21.027344 "/>
<path style=" stroke:none;fill-rule:nonzero;fill:url(#radial2);" d="M 4.464844 21.027344 L 2.480469 21.027344 L 2.480469 20.03125 L 4.464844 20.03125 Z M 4.464844 21.027344 "/>
<path style=" stroke:none;fill-rule:nonzero;fill:url(#radial3);" d="M 19.347656 21.027344 L 21.335938 21.027344 L 21.335938 22.019531 L 19.347656 22.019531 Z M 19.347656 21.027344 "/>
<path style=" stroke:none;fill-rule:nonzero;fill:url(#linear1);" d="M 3.472656 2.171875 L 20.339844 2.171875 C 20.890625 2.171875 21.335938 2.617188 21.335938 3.164062 L 21.335938 20.03125 C 21.335938 20.582031 20.890625 21.027344 20.339844 21.027344 L 3.472656 21.027344 C 2.925781 21.027344 2.480469 20.582031 2.480469 20.03125 L 2.480469 3.164062 C 2.480469 2.617188 2.925781 2.171875 3.472656 2.171875 Z M 3.472656 2.171875 "/>
<path style=" stroke:none;fill-rule:nonzero;fill:rgb(100%,100%,100%);fill-opacity:1;" d="M 3.472656 2.171875 C 2.921875 2.171875 2.480469 2.613281 2.480469 3.164062 L 2.480469 3.289062 C 2.480469 2.738281 2.921875 2.296875 3.472656 2.296875 L 20.339844 2.296875 C 20.890625 2.296875 21.335938 2.738281 21.335938 3.289062 L 21.335938 3.164062 C 21.335938 2.613281 20.890625 2.171875 20.339844 2.171875 Z M 3.472656 2.171875 "/>
<path style=" stroke:none;fill-rule:nonzero;fill:rgb(0%,0%,0%);fill-opacity:0.196078;" d="M 3.472656 20.9375 C 2.921875 20.9375 2.480469 20.496094 2.480469 19.945312 L 2.480469 19.820312 C 2.480469 20.371094 2.921875 20.816406 3.472656 20.816406 L 20.339844 20.816406 C 20.890625 20.816406 21.335938 20.371094 21.335938 19.820312 L 21.335938 19.945312 C 21.335938 20.496094 20.890625 20.9375 20.339844 20.9375 Z M 3.472656 20.9375 "/>
<path style="fill:none;stroke-width:3;stroke-linecap:round;stroke-linejoin:miter;stroke:rgb(12.941177%,12.941177%,12.941177%);stroke-opacity:1;stroke-miterlimit:4;" d="M 74.076259 -168.671091 L 433.875234 -168.671091 C 445.624112 -168.671091 455.123205 -159.171998 455.123205 -147.506445 L 455.123205 212.292529 C 455.123205 224.041407 445.624112 233.5405 433.875234 233.5405 L 74.076259 233.5405 C 62.410707 233.5405 52.911614 224.041407 52.911614 212.292529 L 52.911614 -147.506445 C 52.911614 -159.171998 62.410707 -168.671091 74.076259 -168.671091 Z M 74.076259 -168.671091 " transform="matrix(0.0468795,0,0,0.0468795,0,10.079087)"/>
<path style=" stroke:none;fill-rule:nonzero;fill:url(#linear2);" d="M 3.96875 3.164062 L 19.84375 3.164062 C 20.121094 3.164062 20.339844 3.386719 20.339844 3.660156 L 20.339844 15.566406 C 20.339844 15.84375 20.121094 16.0625 19.84375 16.0625 L 3.96875 16.0625 C 3.695312 16.0625 3.472656 15.84375 3.472656 15.566406 L 3.472656 3.660156 C 3.472656 3.386719 3.695312 3.164062 3.96875 3.164062 Z M 3.96875 3.164062 "/>
<path style=" stroke:none;fill-rule:nonzero;fill:url(#linear3);" d="M 16.371094 5.148438 L 16.867188 5.148438 C 17.964844 5.148438 18.851562 6.148438 18.851562 7.382812 C 18.851562 8.613281 17.964844 9.613281 16.867188 9.613281 L 16.371094 9.613281 C 15.277344 9.613281 14.386719 8.613281 14.386719 7.382812 C 14.386719 6.148438 15.277344 5.148438 16.371094 5.148438 Z M 16.371094 5.148438 "/>
<path style=" stroke:none;fill-rule:nonzero;fill:url(#linear4);" d="M 7.929688 7.007812 C 7.804688 7.007812 7.679688 7.0625 7.589844 7.152344 L 3.472656 11.269531 L 3.472656 15.566406 C 3.472656 15.84375 3.695312 16.0625 3.96875 16.0625 L 19.84375 16.0625 C 20.121094 16.0625 20.339844 15.84375 20.339844 15.566406 L 20.339844 11.417969 L 17.195312 8.621094 C 16.992188 8.4375 16.679688 8.457031 16.5 8.664062 L 13.371094 12.238281 L 8.285156 7.152344 C 8.191406 7.058594 8.0625 7.003906 7.929688 7.007812 Z M 7.929688 7.007812 "/>
<path style=" stroke:none;fill-rule:nonzero;fill:url(#linear5);" d="M 7.929688 7.007812 C 7.804688 7.007812 7.679688 7.0625 7.589844 7.152344 L 5.65625 9.085938 L 6.203125 9.730469 C 6.449219 9.980469 7.171875 9.992188 7.9375 9.484375 C 8.429688 8.996094 9.019531 9.039062 9.425781 9.484375 C 10.003906 10.019531 10.527344 9.980469 11.113281 9.980469 L 8.285156 7.152344 C 8.191406 7.058594 8.0625 7.003906 7.929688 7.007812 Z M 16.863281 8.496094 C 16.726562 8.496094 16.59375 8.554688 16.5 8.664062 L 15.347656 9.980469 L 15.378906 9.980469 C 15.464844 10.167969 15.503906 10.847656 15.875 10.476562 C 16.511719 9.839844 16.621094 10.105469 16.867188 10.351562 C 17.242188 10.726562 17.488281 11.097656 17.859375 10.972656 C 18.480469 10.726562 18.589844 10.113281 18.3125 9.613281 L 17.195312 8.621094 C 17.101562 8.535156 16.980469 8.496094 16.863281 8.496094 Z M 16.863281 8.496094 "/>
<path style="fill:none;stroke-width:3;stroke-linecap:round;stroke-linejoin:miter;stroke:rgb(12.941177%,12.941177%,12.941177%);stroke-opacity:1;stroke-miterlimit:4;" d="M 84.658582 -147.506445 L 423.292911 -147.506445 C 429.209013 -147.506445 433.875234 -142.756899 433.875234 -136.924123 L 433.875234 117.051624 C 433.875234 122.967726 429.209013 127.633947 423.292911 127.633947 L 84.658582 127.633947 C 78.825806 127.633947 74.076259 122.967726 74.076259 117.051624 L 74.076259 -136.924123 C 74.076259 -142.756899 78.825806 -147.506445 84.658582 -147.506445 Z M 84.658582 -147.506445 " transform="matrix(0.0468795,0,0,0.0468795,0,10.079087)"/>
<path style="fill:none;stroke-width:3;stroke-linecap:round;stroke-linejoin:round;stroke:rgb(10.196079%,13.725491%,49.411765%);stroke-opacity:1;stroke-miterlimit:4;" d="M 221.554093 136.336901 C 219.387633 122.088262 237.052613 115.588882 228.970052 137.086829 C 221.887395 156.085015 212.388302 156.834944 212.554953 151.918746 C 213.388206 145.00274 221.97072 148.585731 228.386774 149.33566 C 236.885962 150.41889 245.135175 138.253385 244.635222 130.170823 " transform="matrix(0.0468795,0,0,0.0468795,3.969129,12.311722)"/>
<path style="fill:none;stroke-width:3;stroke-linecap:round;stroke-linejoin:round;stroke:rgb(10.196079%,13.725491%,49.411765%);stroke-opacity:1;stroke-miterlimit:4;" d="M 239.219073 128.337665 C 243.551993 114.0057 267.799677 107.33967 259.717116 128.837617 C 252.634459 147.835803 241.052231 147.585827 239.802351 143.002931 C 238.55247 138.420035 244.718548 130.087498 244.635222 130.170823 " transform="matrix(0.0468795,0,0,0.0468795,3.969129,12.311722)"/>
<path style="fill:none;stroke-width:3;stroke-linecap:round;stroke-linejoin:round;stroke:rgb(10.196079%,13.725491%,49.411765%);stroke-opacity:1;stroke-miterlimit:4;" d="M 265.383241 121.338333 C 283.048221 116.588787 280.381809 109.839431 279.798531 107.589646 C 270.049462 126.671157 269.216208 143.252907 269.882811 138.253385 " transform="matrix(0.0468795,0,0,0.0468795,3.969129,12.311722)"/>
<path style="fill:none;stroke-width:3;stroke-linecap:round;stroke-linejoin:round;stroke:rgb(10.196079%,13.725491%,49.411765%);stroke-opacity:1;stroke-miterlimit:4;" d="M 285.298006 112.672494 C 285.464657 101.090267 304.462843 104.006655 294.463797 114.089026 C 286.214585 122.338238 275.13231 126.921134 279.215254 133.253862 C 284.381427 140.169868 298.130114 129.837522 291.464084 123.421468 C 284.964705 117.755342 283.631498 115.588882 282.964895 113.339097 " transform="matrix(0.0468795,0,0,0.0468795,3.969129,12.311722)"/>
<path style="fill:none;stroke-width:3;stroke-linecap:round;stroke-linejoin:round;stroke:rgb(10.196079%,13.725491%,49.411765%);stroke-opacity:1;stroke-miterlimit:4;" d="M 214.304786 166.000735 C 267.216399 139.586591 328.043924 139.586591 314.878515 144.836089 " transform="matrix(0.0468795,0,0,0.0468795,3.969129,12.311722)"/>
</g>
</svg>
